data/images/route5.svg

<svg xmlns="http://www.w3.org/2000/svg" width="1000" height="6500"><path stroke="#078a3d" d="M500 0v500m0 0v500" stroke-width="100"/><path stroke="#078a3d" d="M500 500a250 250 0 0 1-250 250" stroke-width="100" fill="none"/><path stroke="#078a3d" d="M500 1000v500" stroke-width="100"/><path stroke="#078a3d" d="M500 1000a250 250 0 0 1-250 250" stroke-width="100" fill="none"/><path stroke="#078a3d" d="M500 1500v500m0 0v500" stroke-width="100"/><path stroke="#078a3d" d="M500 2000a250 250 0 0 1-250 250M250 3000c0-125 62.5-187.5 125-250s125-125 125-250m250 500c0-125-62.5-187.5-125-250s-125-125-125-250" stroke-width="100" fill="none"/><path stroke="#078a3d" d="M250 3000v500m500-500v500m-500 0v500" stroke-width="100"/><path d="M390 3950H110m140-450A250 250 0 0 1 0 3750" fill="none" stroke-width="100" stroke="#078a3d"/><path stroke="#078a3d" d="M750 3500v500m0 0v500m0 0v500m0 0v500" stroke-width="100"/><path stroke="#078a3d" d="M750 5000a250 250 0 0 0 250 250" stroke-width="100" fill="none"/><path stroke="#078a3d" d="M750 5500v500m0 0v500" stroke-width="100"/><path d="M890 6450H610" fill="none" stroke-width="100" stroke="#078a3d"/></svg>

<svg xmlns="http://www.w3.org/2000/svg" width="1000" height="6500"><path stroke="#078a3d" d="M500 0v500M500 500v500" stroke-width="100"/><path stroke="#078a3d" d="M500 500a250 250 0 0 1-250 250" stroke-width="100" fill="none"/><path stroke="#078a3d" d="M500 1000v500" stroke-width="100"/><path stroke="#078a3d" d="M500 1000a250 250 0 0 1-250 250" stroke-width="100" fill="none"/><path stroke="#078a3d" d="M500 1500v500M500 2000v500" stroke-width="100"/><path stroke="#078a3d" d="M500 2000a250 250 0 0 1-250 250" stroke-width="100" fill="none"/><g stroke="#078a3d" stroke-width="100" fill="none"><path d="M250 3000c0-125 62.5-187.5 125-250s125-125 125-250M750 3000c0-125-62.5-187.5-125-250s-125-125-125-250"/></g><path stroke="#078a3d" d="M250 3000v500M750 3000v500M250 3500v500" stroke-width="100"/><path d="M390 3950H110M250 3500A250 250 0 0 1 0 3750" fill="none" stroke-width="100" stroke="#078a3d"/><path stroke="#078a3d" d="M750 3500v500M750 4000v500M750 4500v500M750 5000v500" stroke-width="100"/><path stroke="#078a3d" d="M750 5000a250 250 0 0 0 250 250" stroke-width="100" fill="none"/><path stroke="#078a3d" d="M750 5500v500M750 6000v500" stroke-width="100"/><path d="M890 6450H610" fill="none" stroke-width="100" stroke="#078a3d"/></svg>
